X: 13
T: THE FOGGY DEW
B: "Old English Country Dances", Frank Kidson ed., William Reeves pub., London 1890
Z: 2010-9-26 John Chambers <jc:trillian.mit.edu>
M: C
L: 1/8
K: F
F |\
F>GA>B c2f2 | {e}d2c>B {B}A2zc |{B}A2GF E>FG>A | F6 zF |
F>GA>B c2f2 | {e}d2c>B {B}A2zc |{B}A2GF E>FG>A | F6 :|
|: zc |\
c3d _e3e | {_e}d2cB {B}A2zF | f2f2 g_ecB | {B}A6 zc |
F>GA>B c2f2 | {e}d2c>B {B}A2zc |{B}A2GF E>FG>A | F6 :|


%%sep 1 1 500

%%sep 1 1 500

